X:52
T:Drowned Lovers - Fone
%%VWML:SBG-1-2-832-0
F:http://www.vwml.org/record/SBG/1/2/832
Z:Original Sibelius transcriptions by M. & S. Graebe
M:3/4
I:linebreak $
K:F
V:1 treble nm="P1"
V:1
 (3c/d/e/ | f3/2 F/A/c/ | f c e/d/ | c3/2 F/ A/G/ | F3 F/G/ |[M:4/4] A A G F |$ f f g f | d c A f | %8
w: ||Honi- ton, * as||fair * *||||
 c3 F/G/ | A A G F | f f g f/e/ |$ d c A f | c3 a/g/ | f F A c | f3/2 c/ e d | c F A G | F2 x2 | %17
w: snare * *|||||||||

